src/assets/facebook.svg

<svg width="47" height="47" viewBox="0 0 47 47" fill="none" xmlns="http://www.w3.org/2000/svg">
<circle cx="23.5" cy="23.5" r="23.5" fill="white"/>
<path d="M20.2686 25.4064H16V19.8065H20.2682C20.2682 19.7238 20.2682 19.6605 20.2682 19.5971C20.2692 18.4813 20.2458 17.3646 20.2776 16.2495C20.3204 14.7608 20.7145 13.3742 21.6943 12.1996C22.7039 10.9897 24.0447 10.3591 25.5922 10.1122C26.6445 9.94446 27.7032 10.0019 28.7599 10.0488C29.4215 10.0781 30.0817 10.1381 30.7423 10.1854C30.7804 10.188 30.8175 10.1998 30.8609 10.2084V14.639C30.8034 14.6423 30.7503 14.6478 30.6971 14.6478C29.8614 14.6485 29.026 14.6413 28.1903 14.6524C27.8911 14.6564 27.5876 14.6794 27.2947 14.7365C26.469 14.8973 26.0709 15.3205 26.0217 16.148C25.9763 16.9112 25.988 17.6781 25.9789 18.4436C25.9739 18.8864 25.9779 19.3289 25.9779 19.7983H31C30.9599 20.162 30.9245 20.4982 30.8853 20.834C30.767 21.8497 30.647 22.865 30.5276 23.8803C30.4732 24.3419 30.4137 24.8027 30.3672 25.2649C30.3555 25.3805 30.3144 25.4084 30.2037 25.4081C29.0952 25.4045 27.9867 25.4054 26.8782 25.4051C26.5887 25.4051 26.2995 25.4051 25.9846 25.4051V38H20.2686V25.4064Z" fill="#045441"/>
</svg>

<svg xmlns="http://www.w3.org/2000/svg" width="47" height="47" fill="none"><circle cx="23.5" cy="23.5" r="23.5" fill="#fff"/><path fill="#045441" d="M20.269 25.406H16v-5.6h4.268v-.209c.001-1.116-.022-2.232.01-3.347.042-1.49.437-2.876 1.416-4.05 1.01-1.21 2.35-1.84 3.898-2.088 1.053-.168 2.111-.11 3.168-.063.662.03 1.322.09 1.982.136.038.003.075.015.119.023v4.431c-.058.003-.11.009-.164.009-.836 0-1.671-.007-2.507.004-.299.004-.602.027-.895.085-.826.16-1.224.583-1.273 1.411-.046.763-.034 1.53-.043 2.296-.005.442-.001.885-.001 1.354H31c-.04.364-.076.7-.115 1.036q-.178 1.524-.357 3.046c-.055.462-.114.923-.16 1.385-.012.116-.054.143-.164.143q-1.663-.005-3.326-.003h-.893V38h-5.716z"/></svg>
